!!!COM: Richard Strauss
!!!CNT: Deutscher
!!!TXO: Deutsche 
!!!OTL: Die Nacht
!!!OPS: Opus 10
!!!ONM: No. 3
!!!LYR: Hermann v. Gilm
!!!ENC: Brian Bice
!!!YOR: Lieder, Complete Edition, vol. 1
!!!ODT: 1885
!!NB: Vocal melody and text only encoded.
**kern	**silbe
*clefG2	*
*k[f#c#]	*
*M3/4	*
=2	=2
{8f#	{Aus
8g	dem
[2a	Wal-
=3	=3
8a]	|
8b	-de
8.cc#	tritt
16dd	die
4a}	Nacht,}
=4	=4
{8a	{aus
8a	den
8ff#	Ba2u-
8dd	-men
8cc#	schleicht
8b	sie
=5	=5
4ee	lei-
4a}	-se,}
4r	.
=6	=6
{8.g	{schaut
16f#	sich
4.b	um
8b	in
=7	=7
8a	wei-
8g	-tem
4.dd	Krei-
8cc#}	-se,}
=8	=8
{8.b	{nun
16b	gib
2ee}	acht.}
=10	=10
{8f#	{Al-
8g	-le
[2a	Lich-
=11	=11
8a]	|
8b	-ter
8.cc#	die-
16dd	-ser
4a}	Welt,}
=12	=12
{8a	{al-
8a	-le
8ff#	Blu-
8dd	-men,
8cc#	al-
8b	-le
=13	=13
8gg	Far-
8ee	-ben
8.dd	lo2scht
16cc#	sie
4a#}	aus}
=15	=15
8r	.
{8f#	{und
8a#	stiehlt
(8cc#	die
[4d)	Gar
=16	=16
8d]	|
8d	-ben
8.c#	weg
16c#	vom
4f#}	Feld.}
=18	=18
{8f#	{Al-
8g#	-les
4.a	nimmt
8a	sie,
=19	=19
8.b	was
16b	nur
2ee}	hold,}
=20	=20
{8a	{nimmt
8a	das
8b	Sil-
8cc#	-ber
8dd	weg
8ee	des
=21	=21
2.ff#	Stroms,
=22	=22
8dd	nimmt
8b	vom
8cc#	Kup-
8dd	-fer-
8ee	-dach
8ff#	des
=23	=23
2.gg	Doms
=24	=24
8.ff#	weg
16cc#	das
2dd}	Gold.}
=28	=28
{8fn	{Aus-
8g	-ge-
4.a	-plu2n-
8a	-dert
=29	=29
8.a	steht
16b-	der
4ccn}	Strauch,}
{8.fn	{ru2k-
16fn	-ke
=30	=30
2dd	na2-
4dd	-her,
=31	=31
2dd	Seel'
4dd	an
=32	=32
2.dd	See-
=33	=33
2fn}	-le;}
{8.fn	{o
16fn	die
=34	=34
2dd	Nacht,
4dd	mir
=35	=35
2dd	bangt,
4dd	sie
=36	=36
2.gg	steh-
=37	=37
2.g}	-le}
=38	=38
{2b	{dich
4r	.
=39	=39
2a	mir
4r	.
=40	=40
2dd}	auch.}
4r	.
*-	*-
